X:1
T:Title
%%score ( 1 2 3 ) { ( 4 6 8 ) | ( 5 7 ) }
L:1/8
M:4/4
K:A
V:1 treble nm="Grand Piano"
V:2 treble 
V:3 treble 
V:4 bass nm="Bright Piano"
V:6 bass 
V:8 bass 
V:5 bass 
V:7 bass 
V:1
 z4 z2[Q:1/4=100] EE | z2 c2 A2 z2 | F2 z2 z4 | F2 z2 A2 z2 | B6 z2 | z2 c2 A2 z2 | F2 z2 z4 | %7
 F2 A2 z2 B2 |[M:3/4] z A3 z2 |[M:9/32] c3/2 z3/4 | %10
[M:4/4] (5:4:5[Fd]2 [Fd]/ [DF]/-[DF]3/2[FA]/ d3- d/4 z/4 z/ | c2- c/4 z/4 z/ z z4 | %12
 (9:8:8[EB]2 [EG]2 [FA]/ [GB]/-[GB]3/2[Ac]/-[Ac]3/2[A^d]/ |[M:9/8] z3 z B2- B-B/4 z/4 z/ z | %14
[M:3/4] z2 z z/ [DB]/- [DB]/4 z/4 z/ z |[M:1/4] (3:2:2[CA]2 [EG] | %16
[M:4/4] (5:4:4[DF]2- [DF]/ [EG][FA]3/2 z2 (3:2:2[CE]2 [CE] | %17
 (9:8:8[DF]2 [EA]2 [FB]/ [EB]/-[EB]3/2[Ec]/-[Ec]3/2[DB]/ |[M:3/4] z6 |[M:9/32] c3/2 z3/4 | %20
[M:4/4] [Fd]>[Fd] [DF]>[FA] [Fd]3 [Fd] | [Ec]2 [CE]>[CA] [Ec]3 [Ec] | %22
 [EB]2 [EG]>[FA] [GB]2 [Ac]>[A^d] |[M:9/8] e-[=Ge-][^Ge-] [Ae-] [Be]2- [Be]E>[DE] | %24
[M:3/4] [CE]2 [Ec]>[DB] [CA]2 |[M:1/4] [CA]>[EG] |[M:4/4] [DF]2 [EG][FA] [CE]2 [CE]>[CE] | %27
 [DF]2 [EA]>[FB] [EB]2 [Ec]>[DB] |[M:3/4] [CA]6 |] %29
V:2
 x8 | EE .[CA]>B z E .[CA]>G | z D[A,FG][DA] EE [CEA]E/E/ | z D[A,FA][DA] z ^D[A,FG][DA] | %4
 z [G,B,E][G,B,E][G,B,E] [G,B,DE][G,B,DE][G,B,DE][G,B,DE] | EE .[CA]>B z E .[CA]>G | %6
 z D[A,FG][DA] EE [CEA]E/E/ | z D .[A,^E]>B c[C=EAc] z [DEG] |[M:3/4] A[CE] [CE][Ec] [CA]2 | %9
[M:9/32] E/->E/=G/[Gc]3/4 |[M:4/4] z4 (3:2:2F4 [Fd]2 | (7:8:6E3/2[CE]3/2.[CA]/ [Ec]/- [Ec]2 [Ec] | %12
 x8 |[M:9/8] z3 A-A/4 z/4 z/ z z3 |[M:3/4] (3[CE]3 [Ec]3 [CA]3 |[M:1/4] x2 | %16
[M:4/4] z4 [CE]2- [CE]/4 z/4 z/ z | x8 |[M:3/4] x6 |[M:9/32] E/->E/-[E=G-]/4G/<[Gc]/ |[M:4/4] x8 | %21
 x8 | x8 |[M:9/8] .G3 z3 z3 |[M:3/4] x6 |[M:1/4] x2 |[M:4/4] x8 | x8 |[M:3/4] x6 |] %29
V:3
 x8 | z2 z E z2 z E | x8 | x8 | x8 | z2 z E z2 z E | x8 | z2 z D z4 |[M:3/4] x6 |[M:9/32] x9/4 | %10
[M:4/4] x8 | x8 | x8 |[M:9/8] (4:3:5[Ge-][=Ge]-[Ge-]/[^Ge]/-[Ge-] e3- e-[E-e]/<E/-E/[DE]/ | %14
[M:3/4] x6 |[M:1/4] x2 |[M:4/4] x8 | x8 |[M:3/4] [CA]6- |[M:9/32] [CA]3/4 z3/4 z3/4 |[M:4/4] x8 | %21
 x8 | x8 |[M:9/8] x9 |[M:3/4] x6 |[M:1/4] x2 |[M:4/4] x8 | x8 |[M:3/4] x6 |] %29
V:4
 z8 | A,,4 A,,4 | D,4 A,,4 | D,4 F,2 B,,2 | E,4 E,,G,,B,,E, | A,,4 A,,4 | D,,4 A,,4 | %7
 D,4 E,,2 E,2 |[M:3/4] z2 E,2 A,2 |[M:9/32][K:treble] A3/2A3/4 |[M:4/4] (5:4:5A2 A/ A/-A3/2A/ z4 | %11
 (7:8:6A3/2A3/2.A/ A/- A2 A | (9:8:8G2 B2 B/ B/-B3/2B/-B3/2B/ |[M:9/8] z3 z d2- d-d/4 z/4 z/ z | %14
[M:3/4] (3A3 A3 A3 |[M:1/4] (3:2:2A2 A |[M:4/4] (5:4:4A2- A/ AA3/2 z2 (3:2:2A2 A | %17
 (9:8:8A2 A2 A/ A/-A3/2G/-G3/2G/ |[M:3/4] A6 |[M:9/32] A3/2A3/4 |[M:4/4] A>A A>A A3 A | %21
 A2 A>A A3 A | G2 B>B B2 B>B |[M:9/8] B^AB c d2- dG>G |[M:3/4] A2 A>A A2 |[M:1/4] A>A | %26
[M:4/4] A2 AA A2 A>A | A2 A>A A2 G>G |[M:3/4] A6 |] %29
V:5
 z8 | z8 | D,,4 z4 | D,,4 F,,2 B,,,2 | E,,4 z4 | z8 | z8 | D,,4 z2 E,,2 |[M:3/4] z6 | %9
[M:9/32] A,,3/2A,,3/4 |[M:4/4] (5:4:5D,2 D,/ D,/-D,3/2D,/ z4 | %11
 (7:8:6A,,3/2A,,3/2.A,,/ A,,/- A,,2 A,, | (9:8:8B,,2 B,,2 B,,/ B,,/-B,,3/2B,,/-B,,3/2B,,/ | %13
[M:9/8] E,6- E,E,>E, |[M:3/4] (3A,,3 A,,3 A,,3 |[M:1/4] (3:2:2A,,2 A,, | %16
[M:4/4] z4 [A,,A,]2- [A,,A,]/4 z/4 z/ z | (9:8:8D,2 C,2 D,/ E,/-E,3/2E,/-E,3/2E,/ |[M:3/4] A,,6 | %19
[M:9/32] A,,3/2A,,3/4 |[M:4/4] D,>D, D,>D, D,3 D, | A,,2 A,,>A,, A,,3 A,, | %22
 B,,2 B,,>B,, B,,2 B,,>B,, |[M:9/8] E,6- E,E,>E, |[M:3/4] A,,2 A,,>A,, A,,2 |[M:1/4] A,,>A,, | %26
[M:4/4] D,2 [D,,D,][D,,D,] [A,,A,]2 A,,>A,, | D,2 C,>D, E,2 E,>E, |[M:3/4] A,,6 |] %29
V:6
 x8 | x8 | x8 | x8 | x8 | x8 | x8 | x8 |[M:3/4] A,,6 |[M:9/32][K:treble] x9/4 | %10
[M:4/4] z4 (3:2:2A4 A2 | x8 | x481/60 |[M:9/8] z3 c-c/4 z/4 z/ z z3 | %14
[M:3/4] z2 z z/ A/- A/4 z/4 z/ z |[M:1/4] x2 |[M:4/4] z4 A2- A/4 z/4 z/ z | x481/60 |[M:3/4] x6 | %19
[M:9/32] x9/4 |[M:4/4] x8 | x8 | x8 |[M:9/8] x9 |[M:3/4] x6 |[M:1/4] x2 |[M:4/4] x8 | x8 | %28
[M:3/4] x6 |] %29
V:7
 x8 | x8 | x8 | x8 | x8 | x8 | x8 | x8 |[M:3/4] x6 |[M:9/32] x9/4 |[M:4/4] z4 (3:2:2D,4 D,2 | x8 | %12
 x481/60 |[M:9/8] x9 |[M:3/4] z2 z z/ A,,/- A,,/4 z/4 z/ z |[M:1/4] x2 | %16
[M:4/4] (5:4:4D,2- D,/ [D,,D,][D,,D,]3/2 z2 (3:2:2A,,2 A,, | x481/60 |[M:3/4] x6 |[M:9/32] x9/4 | %20
[M:4/4] x8 | x8 | x8 |[M:9/8] x9 |[M:3/4] x6 |[M:1/4] x2 |[M:4/4] x8 | x8 |[M:3/4] x6 |] %29
V:8
 x8 | x8 | x8 | x8 | x8 | x8 | x8 | x8 |[M:3/4] x6 |[M:9/32][K:treble] x9/4 |[M:4/4] x8 | x8 | %12
 x481/60 |[M:9/8] (4:3:5B^A-A/B/-B z3 z G>G |[M:3/4] x6 |[M:1/4] x2 |[M:4/4] x8 | x481/60 | %18
[M:3/4] x6 |[M:9/32] x9/4 |[M:4/4] x8 | x8 | x8 |[M:9/8] x9 |[M:3/4] x6 |[M:1/4] x2 |[M:4/4] x8 | %27
 x8 |[M:3/4] x6 |] %29

